src/assets/tokens/sol-honey.svg

<svg width="192" height="128" viewBox="0 0 192 128" fill="none" xmlns="http://www.w3.org/2000/svg">
<g clip-path="url(#clip0_31_2)">
<g clip-path="url(#clip1_31_2)">
<path d="M127.341 96.304L106.211 118.475C105.751 118.956 105.195 119.34 104.578 119.603C103.96 119.865 103.294 120 102.621 120H2.45308C1.97512 120 1.50757 119.863 1.1079 119.607C0.708219 119.351 0.393809 118.986 0.203299 118.557C0.0127902 118.128 -0.04552 117.654 0.0355336 117.193C0.116587 116.732 0.333473 116.305 0.659545 115.963L21.8058 93.792C22.2639 93.3117 22.8178 92.9285 23.4334 92.6661C24.049 92.4037 24.7131 92.2678 25.3847 92.2666H125.547C126.025 92.2666 126.492 92.4033 126.892 92.6597C127.292 92.9161 127.606 93.2812 127.797 93.71C127.987 94.1389 128.046 94.6128 127.965 95.0736C127.883 95.5345 127.667 95.9621 127.341 96.304ZM106.211 51.6586C105.751 51.177 105.195 50.793 104.578 50.5306C103.96 50.2683 103.294 50.133 102.621 50.1334H2.45308C1.97512 50.1334 1.50757 50.2699 1.1079 50.5264C0.708219 50.7829 0.393809 51.1479 0.203299 51.5767C0.0127902 52.0056 -0.04552 52.4795 0.0355336 52.9404C0.116587 53.4011 0.333473 53.8287 0.659545 54.1707L21.8058 76.3414C22.2639 76.8217 22.8178 77.2048 23.4334 77.4672C24.049 77.7295 24.7131 77.8656 25.3847 77.8666H125.547C126.025 77.8666 126.492 77.7301 126.892 77.4736C127.292 77.2171 127.606 76.8521 127.797 76.4233C127.987 75.9944 128.046 75.5205 127.965 75.0596C127.883 74.5989 127.667 74.1713 127.341 73.8293L106.211 51.6586ZM2.45308 35.7334H102.621C103.294 35.7336 103.96 35.5985 104.578 35.336C105.195 35.0736 105.751 34.6896 106.211 34.208L127.341 12.0373C127.667 11.6955 127.883 11.2678 127.965 10.807C128.046 10.3462 127.987 9.87222 127.797 9.44337C127.606 9.01453 127.292 8.64947 126.892 8.39305C126.492 8.13663 126.025 8.00002 125.547 8H25.3847C24.7131 8.00112 24.049 8.13707 23.4334 8.39944C22.8178 8.66182 22.2639 9.04502 21.8058 9.52534L0.664995 31.696C0.339239 32.0375 0.122449 32.4647 0.0412116 32.925C-0.0400259 33.3853 0.0178217 33.8589 0.207659 34.2875C0.397497 34.7162 0.711073 35.0812 1.10993 35.3381C1.50879 35.5949 1.97558 35.7322 2.45308 35.7334Z" fill="url(#paint0_linear_31_2)"/>
</g>
<path d="M128 128C163.346 128 192 99.3462 192 64C192 28.6538 163.346 0 128 0C92.6538 0 64 28.6538 64 64C64 99.3462 92.6538 128 128 128Z" fill="#FEF3C7"/>
<path d="M109.734 93.88H99.9182C98.2875 93.8952 96.6793 93.499 95.2422 92.728C93.8419 91.9784 92.6612 90.8769 91.8162 89.532L86.5842 81.008C85.7574 79.7725 85.3218 78.3166 85.3342 76.83C85.3342 75.296 85.7502 73.974 86.5842 72.696L91.9082 64.042L86.5842 55.432C85.7655 54.1934 85.3307 52.7407 85.3342 51.256C85.3342 49.764 85.7502 48.356 86.5842 47.078L91.8162 38.554C92.6482 37.1979 93.8322 36.0927 95.2422 35.356C96.6772 34.5751 98.2846 34.1654 99.9182 34.164H109.734L114.92 25.724C115.752 24.3686 116.936 23.2642 118.346 22.528C119.781 21.7464 121.388 21.336 123.022 21.334H132.978C134.69 21.334 136.218 21.718 137.654 22.528C139.055 23.2776 140.235 24.3791 141.08 25.724L146.312 34.164H156.128C157.842 34.164 159.368 34.546 160.804 35.356C162.205 36.1061 163.386 37.2084 164.23 38.554L169.416 47.078C170.25 48.358 170.666 49.722 170.666 51.256C170.666 52.79 170.25 54.154 169.416 55.432L164.092 64.042L169.416 72.696C170.25 73.976 170.666 75.338 170.666 76.83C170.671 78.3155 170.236 79.7691 169.416 81.008L164.23 89.532C163.398 90.8874 162.214 91.9918 160.804 92.728C159.366 93.495 157.758 93.8909 156.128 93.88H146.312L141.08 102.32C140.248 103.675 139.064 104.78 137.654 105.516C136.215 106.282 134.608 106.678 132.978 106.666H123.02C121.39 106.682 119.781 106.286 118.344 105.516C116.944 104.766 115.763 103.665 114.918 102.32L109.734 93.88ZM146.312 59.78H156.266L161.36 51.256L156.266 42.73H146.312L141.08 51.256L146.312 59.78ZM123.162 72.568H132.884L138.07 64.042L132.884 55.518H123.162L117.976 64.042L123.162 72.568ZM123.162 46.994H132.884L138.21 38.34L133.024 29.944H123.068L117.884 38.34L123.208 46.994H123.162ZM114.966 51.254L109.78 42.73H99.9642L94.7782 51.256L99.9642 59.78H109.78L114.966 51.254ZM114.966 76.83L109.78 68.306H99.8262L94.7322 76.83L99.9182 85.354H109.734L114.92 76.83H114.966ZM123.162 81.092L117.836 89.702L123.022 98.142H132.978L138.164 89.702L132.838 81.092H123.116H123.162ZM146.312 85.354H156.128L161.314 76.83L156.128 68.306H146.312L141.08 76.83L146.312 85.354Z" fill="#D97706"/>
</g>
<defs>
<linearGradient id="paint0_linear_31_2" x1="10.8047" y1="122.669" x2="113.28" y2="4.59233" gradientUnits="userSpaceOnUse">
<stop offset="0.08" stop-color="#9945FF"/>
<stop offset="0.3" stop-color="#8752F3"/>
<stop offset="0.5" stop-color="#5497D5"/>
<stop offset="0.6" stop-color="#43B4CA"/>
<stop offset="0.72" stop-color="#28E0B9"/>
<stop offset="0.97" stop-color="#19FB9B"/>
</linearGradient>
<clipPath id="clip0_31_2">
<rect width="192" height="128" fill="white"/>
</clipPath>
<clipPath id="clip1_31_2">
<rect width="128" height="112" fill="white" transform="translate(0 8)"/>
</clipPath>
</defs>
</svg>

<svg xmlns="http://www.w3.org/2000/svg" viewBox="0 0 192 128"><path fill="url(#_sol-a)" d="m127.331 96.884-21.13 22.561a4.92 4.92 0 0 1-3.578 1.555H2.454a2.453 2.453 0 0 1-2.414-2.855c.08-.469.293-.904.615-1.254l21.104-22.56a4.9 4.9 0 0 1 3.578-1.555h100.169a2.45 2.45 0 0 1 2.285 1.45 2.425 2.425 0 0 1-.46 2.658m-21.13-45.446a4.96 4.96 0 0 0-3.578-1.555H2.454a2.46 2.46 0 0 0-2.25 1.468 2.44 2.44 0 0 0 .451 2.64L21.76 76.569a4.96 4.96 0 0 0 3.578 1.555h100.169a2.454 2.454 0 0 0 2.403-2.858 2.44 2.44 0 0 0-.614-1.25zM2.454 35.23h100.169a4.93 4.93 0 0 0 3.578-1.555l21.13-22.566a2.438 2.438 0 0 0-1.825-4.108H25.336a4.93 4.93 0 0 0-3.577 1.554L.655 31.122a2.442 2.442 0 0 0 1.8 4.108"/><defs><linearGradient id="_sol-a" x1="10.804" x2="115.344" y1="123.724" y2="5.369" gradientUnits="userSpaceOnUse"><stop offset=".08" stop-color="#9945ff"/><stop offset=".3" stop-color="#8752f3"/><stop offset=".5" stop-color="#5497d5"/><stop offset=".6" stop-color="#43b4ca"/><stop offset=".72" stop-color="#28e0b9"/><stop offset=".97" stop-color="#19fb9b"/></linearGradient></defs><circle cx="64" cy="64" r="64" fill="#fef3c7" transform="translate(64)"/><path fill="#d97706" d="M109.734 93.88h-9.816a9.7 9.7 0 0 1-4.676-1.152 9.14 9.14 0 0 1-3.426-3.196l-5.232-8.524a7.4 7.4 0 0 1-1.25-4.178c0-1.534.416-2.856 1.25-4.134l5.324-8.654-5.324-8.61a7.54 7.54 0 0 1-1.25-4.176c0-1.492.416-2.9 1.25-4.178l5.232-8.524a8.8 8.8 0 0 1 3.426-3.198 9.8 9.8 0 0 1 4.676-1.192h9.816l5.186-8.44a8.8 8.8 0 0 1 3.426-3.196 9.8 9.8 0 0 1 4.676-1.194h9.956c1.712 0 3.24.384 4.676 1.194a9.14 9.14 0 0 1 3.426 3.196l5.232 8.44h9.816c1.714 0 3.24.382 4.676 1.192a9.14 9.14 0 0 1 3.426 3.198l5.186 8.524c.834 1.28 1.25 2.644 1.25 4.178s-.416 2.898-1.25 4.176l-5.324 8.61 5.324 8.654c.834 1.28 1.25 2.642 1.25 4.134a7.53 7.53 0 0 1-1.25 4.178l-5.186 8.524a8.8 8.8 0 0 1-3.426 3.196 9.8 9.8 0 0 1-4.676 1.152h-9.816l-5.232 8.44a8.8 8.8 0 0 1-3.426 3.196 9.8 9.8 0 0 1-4.676 1.15h-9.958a9.7 9.7 0 0 1-4.676-1.15 9.14 9.14 0 0 1-3.426-3.196zm36.578-34.1h9.954l5.094-8.524-5.094-8.526h-9.954l-5.232 8.526zm-23.15 12.788h9.722l5.186-8.526-5.186-8.524h-9.722l-5.186 8.524zm0-25.574h9.722l5.326-8.654-5.186-8.396h-9.956l-5.184 8.396 5.324 8.654zm-8.196 4.26-5.186-8.524h-9.816l-5.186 8.526 5.186 8.524h9.816zm0 25.576-5.186-8.524h-9.954l-5.094 8.524 5.186 8.524h9.816l5.186-8.524zm8.196 4.262-5.326 8.61 5.186 8.44h9.956l5.186-8.44-5.326-8.61h-9.722zm23.15 4.262h9.816l5.186-8.524-5.186-8.524h-9.816l-5.232 8.524z"/></svg>
